X:95
T: Woodford Fling
S: Jack & Charlie Coen: "The Branch Line"
Z: B.Black
M: 4/4
L: 1/8
R: hornpipe
K: D
fe|d2 cA GEFE |D2 FA D2 FA |d2 cA GE E2 |(3Bcd ec dgfe |
d2 cA GEFE | D2 FA D2 FA | d2 cA GE E2 | (3Bcd ec d2 ||
de | fgaf dcde | fgaf gbag | fgaf dc A2 | (3Bcd ef g2 fe |
fgaf dcde | fgaf gbag | fgaf dc A2 | (3Bcd ef g2 ||
